file/fila.svg

<svg clip-rule="evenodd" fill-rule="evenodd" stroke-linejoin="round" stroke-miterlimit="1.41421" viewBox="0 0 560 400" xmlns="http://www.w3.org/2000/svg"><g fill-rule="nonzero" transform="matrix(1.05264 0 0 1.05264 69.0218 37.8933)"><path d="m114.943 99.407c8.473 0 15.343 6.867 15.343 15.342s-6.869 15.343-15.343 15.343h-70.169c-8.475 0-15.345-6.868-15.345-15.343s6.87-15.342 15.345-15.342z" fill="#cc393c"/><g fill="#3d3d6a"><path d="m107.89 139.611c8.475 0 15.344 6.869 15.344 15.344s-6.869 15.343-15.344 15.343h-39.939c-3.406.013-6.194 2.706-6.325 6.078v19.998c0 8.474-6.869 15.342-15.341 15.342-8.476 0-15.345-6.868-15.345-15.342v-34.032c0-12.553 10.177-22.731 22.729-22.731z"/><path d="m137.253 111.516c0-8.474 6.869-15.343 15.342-15.343 8.476 0 15.345 6.869 15.345 15.343v84.966c0 8.475-6.869 15.345-15.345 15.345-8.473 0-15.342-6.87-15.342-15.345z"/><path d="m326.095 181.395 6.168-.018c1.26 0 2.283-1.023 2.283-2.281.004-.32-.049-.605-.162-.875l-22.928-38.527-35.818 62.018c-2.766 4.796-7.734 7.531-12.891 7.668-.152.021-.305.034-.465.034h-58.291c-12.554 0-22.73-10.178-22.73-22.73v-75.167c0-8.474 6.869-15.343 15.345-15.343 8.473 0 15.344 6.869 15.344 15.343v60.883c.01 3.408 2.703 6.197 6.076 6.324h32.607c.84-.258 3.404-1.131 4.186-2.344l40.957-70.901c3.107-5.336 8.889-8.928 15.506-8.928 6.621 0 12.402 3.598 15.498 8.945l39.908 67.006c2.973 3.87 4.738 8.709 4.738 13.964 0 12.674-10.273 22.946-22.943 22.946h-46.523c-7.738 0-14.01-6.274-14.01-14.013 0-7.735 6.271-14.008 14.01-14.008h24.135z"/></g></g></svg>

<?xml version="1.0" encoding="UTF-8" standalone="no"?>
<!DOCTYPE svg PUBLIC "-//W3C//DTD SVG 1.1//EN" "http://www.w3.org/Graphics/SVG/1.1/DTD/svg11.dtd">
<svg width="100%" height="100%" viewBox="0 0 560 400" version="1.1" xmlns="http://www.w3.org/2000/svg" xmlns:xlink="http://www.w3.org/1999/xlink" xml:space="preserve" xmlns:serif="http://www.serif.com/" style="fill-rule:evenodd;clip-rule:evenodd;stroke-linejoin:round;stroke-miterlimit:1.41421;">
    <g transform="matrix(1.05264,0,0,1.05264,69.0218,37.8933)">
        <path id="path2205" d="M114.943,99.407C123.416,99.407 130.286,106.274 130.286,114.749C130.286,123.224 123.417,130.092 114.943,130.092L44.774,130.092C36.299,130.092 29.429,123.224 29.429,114.749C29.429,106.274 36.299,99.407 44.774,99.407L114.943,99.407Z" style="fill:rgb(204,57,60);fill-rule:nonzero;"/>
        <path id="path2207" d="M107.89,139.611C116.365,139.611 123.234,146.48 123.234,154.955C123.234,163.43 116.365,170.298 107.89,170.298L67.951,170.298C64.545,170.311 61.757,173.004 61.626,176.376L61.626,196.374C61.626,204.848 54.757,211.716 46.285,211.716C37.809,211.716 30.94,204.848 30.94,196.374L30.94,162.342C30.94,149.789 41.117,139.611 53.669,139.611L107.89,139.611Z" style="fill:rgb(61,61,106);fill-rule:nonzero;"/>
        <path id="path2209" d="M137.253,111.516C137.253,103.042 144.122,96.173 152.595,96.173C161.071,96.173 167.94,103.042 167.94,111.516L167.94,196.482C167.94,204.957 161.071,211.827 152.595,211.827C144.122,211.827 137.253,204.957 137.253,196.482L137.253,111.516Z" style="fill:rgb(61,61,106);fill-rule:nonzero;"/>
        <path id="path2211" d="M326.095,181.395L332.263,181.377C333.523,181.377 334.546,180.354 334.546,179.096C334.55,178.776 334.497,178.491 334.384,178.221L311.456,139.694L275.638,201.712C272.872,206.508 267.904,209.243 262.747,209.38C262.595,209.401 262.442,209.414 262.282,209.414L203.991,209.414C191.437,209.414 181.261,199.236 181.261,186.684L181.261,111.517C181.261,103.043 188.13,96.174 196.606,96.174C205.079,96.174 211.95,103.043 211.95,111.517L211.95,172.4C211.96,175.808 214.653,178.597 218.026,178.724L250.633,178.724C251.473,178.466 254.037,177.593 254.819,176.38L295.776,105.479C298.883,100.143 304.665,96.551 311.282,96.551C317.903,96.551 323.684,100.149 326.78,105.496L366.688,172.502C369.661,176.372 371.426,181.211 371.426,186.466C371.426,199.14 361.153,209.412 348.483,209.412L301.96,209.412C294.222,209.412 287.95,203.138 287.95,195.399C287.95,187.664 294.221,181.391 301.96,181.391L326.095,181.391L326.095,181.395Z" style="fill:rgb(61,61,106);fill-rule:nonzero;"/>
    </g>
</svg>
